!!!COM: Gholmieh, Walid Georges
!!!CDT: b.1938
!!!OTL: National Anthem, Iraq
!!!ENC: Davis, Matthew J.
!!Vocal Line Only
**kern
*clefG2
*k[b-e-a-]
*E-:
*M2/4
=1-
8B-
8B-
==!|:2
4e-
4e-
=3
[4f
8.f]
16f
=4
4g
4e-
=5
[4g
8.g]
16a-
=6
2b-
=7
4b-
8.b-
16b-
=8
4cc
4b-
=9
[4a-
8.a-]
16g
=10
4b-
4a-
=11
[4g
8.g]
16f
=12
2g
=13
4g
8.g
16g
=14
4a-
4g
=15
[4f
8.f]
16f
=16
4g
4f
=17
[4e-
8.e-
16b-
=18
4b-
4r
=19
4r
8b-
8b-
=20
4cc
4b-
=21
[4a-
8.a-]
16g
=22
4f
4e-
=23
[4c
8.c]
16d
=24
2e-
=25
!First Ending
8e-
8r
8B-
8B-
!Repeat from measure 2 to second ending
==:|!26
!Second Ending
8e-
8r
4r
==|!
*-
